X: 11
T: Lads Of Laois, The
Z: Joseph Donahue
S: https://thesession.org/tunes/58#setting52220
R: reel
M: 4/4
L: 1/8
K: Edor
|: "Em"EB,{B,C}B,2 EGFE | "D"DA,{A,B,}A,2 DEFD | "Em"GEED EFGA | "Em"B2eB dBAF |
"Em"EB,{B,C}B,2 EGFE | "D"DA,{A,B,}A,2 DEFD | "Em"DEBE dEBE | "D"DEFA "Em"BE{EF}E2 :|
|: "Em"eB{Bc}B2 egfe | "D"defa gfed | (3"D"Bcded efge | "D"fgaf "Bm"gfed |
"Em"eB{Bc}B2 GBFB | "Em"EBBA Bcde | "Em"g3e "D"f3d | "Em"egfe dBAF :|

%-------------------- TUNE SEPARATOR --------------------%

